svgs/thin/square-down-left.svg

<svg xmlns="http://www.w3.org/2000/svg" viewBox="0 0 448 512"><!--! Font Awesome Pro 6.0.0-alpha3 by @fontawesome - https://fontawesome.com License - https://fontawesome.com/license (Commercial License) --><path d="M325.9 222c9.373-9.371 9.481-24.68 .1097-34.05l-33.94-33.94c-9.371-9.371-24.68-9.261-34.05 .1097L184.6 227.6L152.1 195.1C137.9 180.8 112 191.5 112 212.9V344c.002 6.629 2.686 12.62 7.029 16.97S129.4 368 136 368h131.1c21.38 0 32.09-25.85 16.97-40.97l-31.6-31.6L325.9 222zM314.7 210.6l-84.85 84.86l42.91 42.91c3.41 3.41 2.35 7.234 1.734 8.719C273.8 348.5 271.9 352 267.1 352H136c-2.883 0-4.781-1.469-5.656-2.344C129.5 348.8 128 346.9 128 344V212.9c0-4.824 3.451-6.777 4.936-7.395c1.486-.6133 5.309-1.672 8.719 1.738l42.91 42.91l84.85-84.85c3.119-3.121 8.193-3.121 11.31 0l33.94 33.94C317.8 202.4 317.8 207.5 314.7 210.6zM448 416V96c0-35.35-28.65-64-64-64H64C28.65 32 0 60.65 0 96v320c0 35.34 28.65 64 64 64h320C419.3 480 448 451.3 448 416zM432 416c0 26.47-21.53 48-48 48H64c-26.47 0-48-21.53-48-48V96c0-26.47 21.53-48 48-48h320c26.47 0 48 21.53 48 48V416z"/></svg>

<svg xmlns="http://www.w3.org/2000/svg" viewBox="0 0 448 512"><!-- Font Awesome Pro 6.0.0-alpha2 by @fontawesome - https://fontawesome.com License - https://fontawesome.com/license (Commercial License) --><path d="M325.988 221.895C335.361 212.523 335.359 197.328 325.988 187.953L292.047 154.012C282.676 144.641 267.479 144.641 258.105 154.012L184.566 227.551L152.971 195.953C137.852 180.836 112 191.547 112 212.926V344C112.002 350.629 114.686 356.625 119.029 360.969S129.373 368 136 368H267.074C288.457 368 299.166 342.148 284.045 327.031L252.449 295.434L325.988 221.895ZM314.674 210.578L229.822 295.434L272.732 338.344C276.143 341.754 275.082 345.578 274.467 347.062C273.85 348.547 271.9 352 267.074 352H136C133.117 352 131.219 350.531 130.344 349.656C129.467 348.781 128.002 346.883 128.002 344V212.926C128.002 208.102 131.453 206.148 132.937 205.531C134.424 204.918 138.246 203.859 141.656 207.27L184.566 250.18L269.42 165.328C272.539 162.207 277.613 162.207 280.732 165.328L314.674 199.266C317.795 202.387 317.795 207.461 314.674 210.578ZM448 416V96C448 60.652 419.348 32 384 32H64C28.652 32 0 60.652 0 96V416C0 451.344 28.652 480 64 480H384C419.348 480 448 451.344 448 416ZM432 416C432 442.469 410.469 464 384 464H64C37.531 464 16 442.469 16 416V96C16 69.531 37.531 48 64 48H384C410.469 48 432 69.531 432 96V416Z"/></svg>
